X: 1181
T: Paddy Ryan's Dream
M:C|
L:1/8
R:Reel
B:O'Neill's 1181
N:1st Setting
N:Collected by McNamara
Z:Transcribed by Trish O'Neil
K:Am
A>E (3.E.E.E cABG | EGDC B,CDB, \
| (3.A,.A,.A, A,B, CDEG |1 cAB^G ABcB :|2 cAB^G "end"(3.A.A.A A2 ||
B2 \
| Aaa^g aecA | Agg^f gdBG | Aaa^g ae=fd | edcB (3cBA BG |
| Aaa^g aecA | Agg^f gdBG | AcBd cedf | edcB AB"DC"cB |]


